polaris-icons/icons/newicons/ReturnsMajor.svg

<svg width="20" height="20" viewBox="0 0 20 20" fill="none" xmlns="http://www.w3.org/2000/svg">
<path fill-rule="evenodd" clip-rule="evenodd" d="M15.5 8V9.25C15.5 9.66421 15.8358 10 16.25 10C16.6642 10 17 9.66421 17 9.25V7.25C17 7.16403 16.9852 7.07871 16.9563 6.99775L16.4174 5.48874C15.8843 3.99626 14.4706 3 12.8858 3H7.18014C5.64604 3 4.26665 3.93441 3.69764 5.35907L3.0535 6.97181C3.01816 7.0603 3 7.15472 3 7.25V13.25C3 15.3211 4.67893 17 6.75 17H9.75C10.1642 17 10.5 16.6642 10.5 16.25C10.5 15.8358 10.1642 15.5 9.75 15.5H6.75C5.50736 15.5 4.5 14.4926 4.5 13.25V8H15.5ZM7.18014 4.5C6.25968 4.5 5.43205 5.06064 5.09064 5.91544L4.85716 6.5H9.25V4.5H7.18014ZM10.75 4.5V6.5H15.1857L15.0048 5.99324C14.6849 5.09776 13.8367 4.5 12.8858 4.5H10.75Z" fill="black"/>
<path d="M6 10C6 9.58579 6.33579 9.25 6.75 9.25H9.25C9.66421 9.25 10 9.58579 10 10C10 10.4142 9.66421 10.75 9.25 10.75H6.75C6.33579 10.75 6 10.4142 6 10Z" fill="black"/>
<path d="M18 11.75C18 11.3358 17.6642 11 17.25 11C16.8358 11 16.5 11.3358 16.5 11.75V13.375C16.5 14.0654 15.9404 14.625 15.25 14.625H14.4759L15.0483 14.0117C15.3309 13.7089 15.3145 13.2343 15.0117 12.9517C14.7089 12.6691 14.2343 12.6854 13.9517 12.9883L12.2017 14.8633C11.9327 15.1514 11.9327 15.5986 12.2017 15.8867L13.9517 17.7617C14.2343 18.0646 14.7089 18.0809 15.0117 17.7983C15.3145 17.5157 15.3309 17.0411 15.0483 16.7383L14.4759 16.125H15.25C16.7688 16.125 18 14.8938 18 13.375V11.75Z" fill="black"/>
</svg>

<svg viewBox="0 0 20 20" fill="none" xmlns="http://www.w3.org/2000/svg"><path fill-rule="evenodd" clip-rule="evenodd" d="M15.5 8v1.25a.75.75 0 0 0 1.5 0v-2a.75.75 0 0 0-.044-.252l-.539-1.51a3.75 3.75 0 0 0-3.531-2.488h-5.706a3.75 3.75 0 0 0-3.482 2.36l-.644 1.612a.75.75 0 0 0-.054.278v6a3.75 3.75 0 0 0 3.75 3.75h3a.75.75 0 0 0 0-1.5h-3a2.25 2.25 0 0 1-2.25-2.25v-5.25h11Zm-8.32-3.5c-.92 0-1.748.56-2.09 1.415l-.233.585h4.393v-2h-2.07Zm3.57 0v2h4.436l-.181-.507a2.25 2.25 0 0 0-2.12-1.493h-2.135Z" fill="#5C5F62"/><path d="M6 10a.75.75 0 0 1 .75-.75h2.5a.75.75 0 0 1 0 1.5h-2.5a.75.75 0 0 1-.75-.75Z" fill="#5C5F62"/><path d="M18 11.75a.75.75 0 0 0-1.5 0v1.625c0 .69-.56 1.25-1.25 1.25h-.774l.572-.613a.75.75 0 0 0-1.096-1.024l-1.75 1.875a.75.75 0 0 0 0 1.024l1.75 1.875a.75.75 0 1 0 1.096-1.024l-.572-.613h.774a2.75 2.75 0 0 0 2.75-2.75v-1.625Z" fill="#5C5F62"/></svg>
